packages/sources/icons/src/vitamix/store-line.svg

<svg width="16" height="16" viewBox="0 0 16 16" fill="none" xmlns="http://www.w3.org/2000/svg">
<path fill-rule="evenodd" clip-rule="evenodd" d="M14 2H2V3.33333H14V2ZM14 8.66667V13.3333C14 13.7015 13.7015 14 13.3333 14H2.66667C2.29848 14 2 13.7015 2 13.3333V8.66667H1.33333V7.33333L2 4H14L14.6667 7.33333V8.66667H14ZM3.33333 8.66667V12.6667H12.6667V8.66667H3.33333ZM13.3067 7.33333H2.69332L3.09332 5.33333H12.9067L13.3067 7.33333ZM4 9.33333H9.33333V11.3333H4V9.33333Z" fill="#001018"/>
</svg>

<svg width="16" height="16" fill="none" xmlns="http://www.w3.org/2000/svg"><path fill-rule="evenodd" clip-rule="evenodd" d="M14 2H2v1.333h12V2zm0 6.667v4.666a.667.667 0 0 1-.667.667H2.667A.667.667 0 0 1 2 13.333V8.667h-.667V7.333L2 4h12l.667 3.333v1.334H14zm-10.667 0v4h9.334v-4H3.333zm9.974-1.334H2.693l.4-2h9.814l.4 2zM4 9.333h5.333v2H4v-2z" fill="#001018"/></svg>
